!!!!SEGMENT: pl-kk--kk-i-111--014-001_anonim--deo-gratias-wirginibus-1mum.krn
!!!cenid: 18xx:2586
!!!COM: Anonim
!!!COM-rismid: pe30004985
!!!CDT:
!!!CNT:
!!!GTL: Deo gratias
!!!OTL: Wirginibus 1mum
!!!OMV: 001
!!!PDT: 1824
!!!AGN: Sacred
!!!SMS-siglum: PL-Kk
!!!SMS-shelfmark: Kk.I.111
!!!SMS-shelfwork: 014-001 G
!!!SMS-variant:
!!!SMS-altvar:
!!!NIFC-rismid: 1001157701
!!!URL-scan: http://repozytorium.nifc.pl/skany/pl-kk-nut--i-111
!!!ONB-nifc: UWAGA: A, T1, T2. Podział na poszególne Deo gratias. A: skan 0004 (m.in)
!!!key:
**kern	**text	**kern	**text	**kern	**text
*part3	*part3	*part2	*part2	*part1	*part1
*staff3	*staff3	*staff2	*staff2	*staff1	*staff1
*Itenor	*	*Itenor	*	*Ialto	*
*I"Tenore Vagante.	*	*I"Tenore Chorale.	*	*I"Alto.	*
*I'T 2	*	*I'T 1	*	*I'A	*
*clefC4	*	*clefC4	*	*clefC3	*
*k[b-]	*	*k[]	*	*k[b-]	*
*F:	*	*F:	*	*F:	*
*M2/1	*	*M2/1	*	*M2/1	*
*met(C|)	*	*met(C|)	*	*met(C|)	*
=1-	=1-	=1-	=1-	=1-	=1-
*all\right	*	*all\right	*	*all\right	*
!	!	!LO:TX:t=P:problem=kreska pseudotaktowa	!	!	!
4A\	De-	1F/	De-	2c/	De-
4B-\	.	.	.	.	.
*2\right	*	*	*	*	*
!LO:TX:t=P:problem=kreska pseudotaktowa	!	!	!	!LO:TX:t=P:problem=kreska pseudotaktowa	!
2c\	-o	.	.	2A/	.
*	*	*lig	*	*	*
!	!	!	!	!LO:TX:t=P:problem=kreska pseudotaktowa	!
2d\	gra-	1G/	-o	1B-/	-o
!LO:TX:t=P:problem=kreska pseudotaktowa	!	!	!	!	!
2en\	.	.	.	.	.
=2-	=2-	=2-	=2-	=2-	=2-
!	!	!LO:TX:t=P:problem=kreska pseudotaktowa	!	!	!
2c\	.	1F/	.	2A/	gra-
2d\	.	.	.	2Bn/	.
!LO:TX:t=P:problem=kreska pseudotaktowa	!	!	!	!LO:TX:t=P:problem=kreska pseudotaktowa	!
*	*	*Xlig	*	*	*
*	*	*lig	*	*2\right	*
2en\	.	1G/	.	2c\	.
!LO:TX:t=P:problem=kreska pseudotaktowa	!	!	!	!	!
2d\	.	.	.	4d\	.
!	!	!	!	!LO:TX:t=P:problem=kreska pseudotaktowa	!
.	.	.	.	4e\	.
=3-	=3-	=3-	=3-	=3-	=3-
!	!	!LO:TX:t=P:problem=kreska pseudotaktowa	!	!	!
4c\	.	1A\	.	2.f\	.
4B-X\	.	.	.	.	.
4A\	.	.	.	.	.
!	!	!	!	!LO:TX:t=P:problem=kreska pseudotaktowa	!
4c\	.	.	.	4e\	.
!LO:TX:t=P:problem=kreska pseudotaktowa	!	!	!	!	!
*	*	*Xlig	*	*	*
*	*	*lig	*	*	*
!	!	!	!	!LO:TX:t=P:problem=kreska pseudotaktowa	!
4B-\	.	1G/	.	1d\	.
4c\	.	.	.	.	.
4d\	.	.	.	.	.
!LO:TX:t=P:problem=kreska pseudotaktowa	!	!	!	!	!
4G/	-ti-	.	.	.	.
=4-	=4-	=4-	=4-	=4-	=4-
!LO:TX:t=P:problem=kreska pseudotaktowa	!	!LO:TX:t=P:problem=kreska pseudotaktowa	!	!LO:TX:t=P:problem=kreska pseudotaktowa	!
1G/	-as.	1E/	.	1d\	.
*	*	*Xlig	*	*	*
!	!	!LO:TX:t=P:problem=kreska pseudotaktowa	!	!	!
4A\	De-	1F/	.	2.c\	.
4B-\	.	.	.	.	.
4c\	.	.	.	.	.
!LO:TX:t=P:problem=kreska pseudotaktowa	!	!	!	!LO:TX:t=P:problem=kreska pseudotaktowa	!
4A\	.	.	.	4d\	-ti-
=5-	=5-	=5-	=5-	=5-	=5-
!LO:TX:t=P:problem=kreska pseudotaktowa	!	!LO:TX:t=P:problem=kreska pseudotaktowa	!	!LO:TX:t=P:problem=kreska pseudotaktowa	!
1G/	.	1c\	gra-	1e\	-as
!	!	!LO:TX:t=P:problem=kreska pseudotaktowa	!	!	!
2F/	o	1B-X\	.	2d\	De-
!LO:TX:t=P:problem=kreska pseudotaktowa	!	!	!	!	!
2E/	.	.	.	4c\	.
!	!	!	!	!LO:TX:t=P:problem=kreska pseudotaktowa	!
.	.	.	.	4B-\	.
=6-	=6-	=6-	=6-	=6-	=6-
!LO:TX:t=P:problem=kreska pseudotaktowa	!	!LO:TX:t=P:problem=kreska pseudotaktowa	!	!	!
1c\	gra-	1A\	.	2A/	.
.	.	.	.	1f\	.
!	!	!LO:TX:t=P:problem=kreska pseudotaktowa	!	!	!
2B-\	.	1G/	.	.	.
!LO:TX:t=P:problem=kreska pseudotaktowa	!	!	!	!LO:TX:t=P:problem=kreska pseudotaktowa	!
2G/	.	.	.	2e\	-o
=7-	=7-	=7-	=7-	=7-	=7-
!	!	!LO:TX:t=P:problem=kreska pseudotaktowa	!	!	!
2A\	.	1F/	.	2f\	.
!LO:TX:t=P:problem=kreska pseudotaktowa	!	!	!	!LO:TX:t=P:problem=kreska pseudotaktowa	!
2c\	.	.	.	2A/	.
!LO:LB:g=original	!	!LO:TX:t=P:problem=kreska pseudotaktowa	!	!LO:TX:t=P:problem=kreska pseudotaktowa	!
2d\	.	1G/	.	1B-X/	gra-
!LO:TX:t=P:problem=kreska pseudotaktowa	!	!	!	!	!
2en\	.	.	.	.	.
=8-	=8-	=8-	=8-	=8-	=8-
!	!	!LO:TX:t=P:problem=kreska pseudotaktowa	!	!	!
2c\	.	1F/	.	2A/	.
!LO:TX:t=P:problem=kreska pseudotaktowa	!	!	!	!LO:TX:t=P:problem=kreska pseudotaktowa	!
2d\	.	.	.	2Bn/	.
!	!	!LO:TX:t=P:problem=kreska pseudotaktowa	!	!	!
2en\	.	1G/	.	2c\	.
!LO:TX:t=P:problem=kreska pseudotaktowa	!	!	!	!	!
2d\	.	.	.	4d\	.
!	!	!	!	!LO:TX:t=P:problem=kreska pseudotaktowa	!
.	.	.	.	4e\	.
=9-	=9-	=9-	=9-	=9-	=9-
!	!	!LO:TX:t=P:problem=kreska pseudotaktowa	!	!	!
4c\	.	1A\	.	2.f\	.
4B-\	.	.	.	.	.
4A\	.	.	.	.	.
!LO:TX:t=P:problem=kreska pseudotaktowa	!	!	!	!LO:TX:t=P:problem=kreska pseudotaktowa	!
4c\	.	.	.	4e\	.
!	!	!LO:TX:t=P:problem=kreska pseudotaktowa	!	!LO:TX:t=P:problem=kreska pseudotaktowa	!
4B-\	.	1G/	.	1d\	.
4c\	.	.	.	.	.
4d\	.	.	.	.	.
!LO:TX:t=P:problem=kreska pseudotaktowa	!	!	!	!	!
!LO:SIC:v:l:s=-	!	!	!	!	!
4G/	-li-	.	.	.	.
=10-	=10-	=10-	=10-	=10-	=10-
2.G/	.	2.E/	.	2.c\	.
!LO:TX:t=P:problem=kreska pseudotaktowa	!	!LO:TX:t=P:problem=kreska pseudotaktowa	!	!LO:TX:t=P:problem=kreska pseudotaktowa	!
4G/	ti-	4E/	-ti-	4c\	-ti-
!LO:N:vis=0	!	!LO:N:vis=0	!	!LO:N:vis=0	!
1A\;	-as.	1F/;	-as.	1c\;	-as
==	==	==	==	==	==
*-	*-	*-	*-	*-	*-
!!!system-decoration: [(s1,s2,s3)]
!!!EED: Andrzej Borzym
!!!EST: 2021-08-04
!!!AIN: 1 alto 2 tenor
!!!ENC: Krzysztof Stępień
!!!END: 2021-07-12
